app/dist/common/images/tokyo-electron.svg

<svg height="18" width="18" xmlns="http://www.w3.org/2000/svg"><path d="m0 0h18v18h-18z" fill="#f0f3fa"/><path d="m2 6h4v1h-1.25v5h-1.5v-5h-1.25zm6 0h-1v6h4v-1h-2.5v-4h2.5v-1zm4 0h1.5v5h2.5v1h-4z" fill="#00aceb"/><path d="m9 8.25h1.5v1.5h-1.5z" fill="#58b530"/></svg>

<!-- by TradingView --><svg xmlns="http://www.w3.org/2000/svg" width="18" height="18"><path fill="#F0F3FA" d="M0 0h18v18H0z"/><path d="M2 6h4v1H4.75v5h-1.5V7H2V6zm6 0H7v6h4v-1H8.5V7H11V6H8zm4 0h1.5v5H16v1h-4V6z" fill="#00ACEB"/><path fill="#58B530" d="M9 8.25h1.5v1.5H9z"/></svg>
